!!!OTL: Neujahrlied.
!!!OTL-incipit: SO SINGEN WIR SO TRINKEN WIR
!!!ARE: Europa, Mitteleuropa, Deutschland
!!!SCT: F0763
!!!TXL: @@DE
!!!YEM: Copyright 1995, estate of Helmut Schaffrath.
**kern	**text
*ICvox	*
*clefG2	*
*M3/4	*
*k[f#c#g#]	*
*A:	*
!LO:TX:a:t=Fest und froh.	!
!LO:TX:a:t=P:only the highest voice encoded:problem	!
{8e	1._So
8cc#/	ſin-
8b/	-gen
=1	=1
4.a	wir,
8b/	ſo
8cc#/	trinken
8a	.
=2	=2
4b/	wir
8r}	.
{8e	uns
8dd/	froh
8cc#/	hin-
=3	=3
4.b/	-ein
8cc#/	in's
8dd/	neue
8b/	.
=4	=4
2cc#/}	Jahr.
{4cc#/	Wir
=5	=5
8b/	laſſen
8cc#/	.
8dd/	drüben
8cc#/	.
8b/	Gram
8cc#/	und
=6	=6
2dd/}	Leid,
{4dd/	und
=7	=7
8cc#/	nehmen
8dd/	.
8ee/	mit
8dd/	die
8cc#/	Fröhlich-
8dd/	.
=8	=8
2ee/}	-keit
{4cc#/	in's
=9	=9
2dd/	neu-
4d	-e
=10	=10
2e}	Jahr,
{4e	in's
=11	=11
(>4e	neu-
4cc#/)	.
8.b/L	-e
16aJ	.
=12	=12
4a;	Jahr!
8r}	.
==	==
!!!AGN: Geselligkeits -, Trink - Lied, Neujahr
!!!ONB: ESAC (Essen Associative Code) Database: FINK
!!!AMT: simple triple
!!!AIN: vox
!!!EED: Helmut Schaffrath
!!!EEV: 1.0
!!Text: H. v. Fallersleben.
!!!RDF**kern: > = above
!!!GTL: Liedertafel- und Gesellschaftslieder
!!!source: Musikalischer Hausschatz der Deutschen. Eine Sammlung von über 1000 Liedern und Gesängen mit Singstimmen und Klavierbegleitung. Leipzig, Litterarisches Verlags-Haus.
!!!page: 521
!!!URL-scan: https://www.digitale-sammlungen.de/en/view/bsb11144622?page=474
!!!ENC: Anna Maria Matuszewska
!!!EEV: 2024/08/06
*-	*-
